public/icons/icon/lock-small.svg

<svg width="30" height="30" viewBox="0 0 30 30" fill="none" xmlns="http://www.w3.org/2000/svg">
<path d="M9 14.8479C9 14.2956 9.44772 13.8479 10 13.8479H19.6458C20.1981 13.8479 20.6458 14.2956 20.6458 14.8479V21C20.6458 21.5523 20.1981 22 19.6458 22H10C9.44772 22 9 21.5523 9 21V14.8479Z" stroke="black" stroke-width="2" stroke-linejoin="round"/>
<path d="M18.3166 13.8482V11.6742C18.3166 9.42601 17.0727 8 14.8245 8V8V8C12.5766 8 11.3291 9.42949 11.3291 11.6774V13.8482" stroke="black" stroke-width="2"/>
</svg>

<svg xmlns="http://www.w3.org/2000/svg" width="30" height="30" fill="none"><path stroke="#000" stroke-linejoin="round" stroke-width="2" d="M9 14.848a1 1 0 0 1 1-1h9.646a1 1 0 0 1 1 1V21a1 1 0 0 1-1 1H10a1 1 0 0 1-1-1v-6.152Z"/><path stroke="#000" stroke-width="2" d="M18.317 13.848v-2.174C18.317 9.426 17.073 8 14.825 8s-3.496 1.43-3.496 3.677v2.171"/></svg>
